X:641
T:Winifreds Knot.
T:Open the door to three.
C:John Malchair's Third Collection of Tunes
F:https://www.vwml.org/record/Malchair/3619/p64
F:www.vwml.org/topics/historic-dance-and-tune-books/Malchair
Z:Eric Conrad Feb 2020
N:Modern notation apart from the strange time signature.
N:NB1 Repeat added
N:NB2 MS time signature was "C 6/4"
M:6/4   % Marked in original as "C 6/4".
L:1/4
W:See coll-2d. p.6.
W:This is best and as in Ed. 1605.
K:G
|: "_NB1,2"D | G2G B>cB | A2D G2G | B>cB c2c | d2d d>cB | A2D G>AG | BA2 G2 :|

